src/landing-images/icons/insta.svg

<svg width="40" height="40" viewBox="0 0 40 40" fill="none" xmlns="http://www.w3.org/2000/svg">
  <path d="M20.1249 4.4506C25.4318 4.4506 26.0604 4.47041 28.1561 4.56423C30.0939 4.651 31.1463 4.96867 31.8467 5.23564C32.7743 5.58938 33.4365 6.01202 34.1319 6.69435C34.8274 7.37667 35.2581 8.02634 35.6186 8.93647C35.8908 9.62367 36.2146 10.6562 36.303 12.5573C36.3986 14.6136 36.4188 15.2303 36.4188 20.4371C36.4188 25.6438 36.3986 26.2605 36.303 28.3167C36.2146 30.2179 35.8908 31.2504 35.6186 31.9376C35.2581 32.8478 34.8274 33.4974 34.1319 34.1798C33.4365 34.8621 32.7743 35.2847 31.8467 35.6384C31.1463 35.9054 30.0939 36.2231 28.1561 36.3099C26.0607 36.4037 25.4321 36.4235 20.1249 36.4235C14.8178 36.4235 14.1892 36.4037 12.0938 36.3099C10.156 36.2231 9.10363 35.9054 8.40329 35.6384C7.47557 35.2847 6.81342 34.8621 6.11797 34.1798C5.42252 33.4974 4.99176 32.8478 4.63129 31.9376C4.35911 31.2504 4.03533 30.2179 3.94689 28.3168C3.85127 26.2605 3.83107 25.6438 3.83107 20.4371C3.83107 15.2303 3.85127 14.6136 3.94689 12.5574C4.03533 10.6562 4.35911 9.62367 4.63129 8.93647C4.99176 8.02634 5.42252 7.37667 6.11797 6.69435C6.81342 6.01202 7.47557 5.58938 8.40329 5.23564C9.10363 4.96867 10.156 4.651 12.0937 4.56423C14.1895 4.47041 14.8181 4.4506 20.1249 4.4506ZM20.1249 0.937012C14.7272 0.937012 14.0504 0.959459 11.9306 1.05436C9.81501 1.1491 8.37031 1.47869 7.10604 1.96078C5.79908 2.45911 4.6907 3.12588 3.58579 4.20994C2.48088 5.29401 1.80129 6.38147 1.29337 7.66377C0.80202 8.90419 0.46609 10.3216 0.369524 12.3973C0.2728 14.4771 0.25 15.1411 0.25 20.4371C0.25 25.733 0.2728 26.397 0.369524 28.4768C0.46609 30.5525 0.80202 31.9699 1.29337 33.2103C1.80129 34.4925 2.48088 35.5801 3.58579 36.6642C4.6907 37.7482 5.79908 38.415 7.10604 38.9133C8.37031 39.3954 9.81501 39.725 11.9306 39.8197C14.0504 39.9146 14.7272 39.937 20.1249 39.937C25.5227 39.937 26.1995 39.9146 28.3193 39.8197C30.4349 39.725 31.8796 39.3954 33.1439 38.9133C34.4508 38.415 35.5592 37.7482 36.6641 36.6642C37.769 35.5801 38.4486 34.4926 38.9565 33.2103C39.4479 31.9699 39.7838 30.5525 39.8804 28.4768C39.9771 26.397 40 25.733 40 20.4371C40 15.1411 39.9771 14.4771 39.8804 12.3973C39.7838 10.3216 39.4479 8.90419 38.9565 7.66377C38.4486 6.38147 37.769 5.29401 36.6641 4.20994C35.5592 3.12588 34.4508 2.45911 33.1439 1.96078C31.8796 1.47869 30.4349 1.1491 28.3193 1.05436C26.1995 0.959459 25.5227 0.937012 20.1249 0.937012ZM20.1249 10.4235C14.4883 10.4235 9.91884 14.9067 9.91884 20.4371C9.91884 25.9674 14.4883 30.4506 20.1249 30.4506C25.7616 30.4506 30.3311 25.9674 30.3311 20.4371C30.3311 14.9067 25.7616 10.4235 20.1249 10.4235ZM20.1249 26.9371C16.4661 26.9371 13.4999 24.0269 13.4999 20.4371C13.4999 16.8472 16.4661 13.937 20.1249 13.937C23.7838 13.937 26.75 16.8472 26.75 20.4371C26.75 24.0269 23.7838 26.9371 20.1249 26.9371ZM33.1192 10.0279C33.1192 11.3202 32.0515 12.3679 30.7343 12.3679C29.4171 12.3679 28.3492 11.3202 28.3492 10.0279C28.3492 8.73553 29.4171 7.68792 30.7343 7.68792C32.0515 7.68792 33.1192 8.73553 33.1192 10.0279Z" fill="url(#paint0_linear_101_208)"/>
  <defs>
    <linearGradient id="paint0_linear_101_208" x1="14.7045" y1="-3.16825" x2="42.7603" y2="36.7251" gradientUnits="userSpaceOnUse">
      <stop stop-color="#B196DF"/>
      <stop offset="1" stop-color="#7B59DD"/>
    </linearGradient>
  </defs>
</svg>

<svg xmlns="http://www.w3.org/2000/svg" width="40" height="40"  viewBox="0 0 40 40"  fill="none"><path fill="#18232F" d="M20.125 4.45c5.307 0 5.935.02 8.031.114 1.938.087 2.99.405 3.69.672.928.353 1.59.776 2.286 1.458a6.031 6.031 0 0 1 1.487 2.242c.272.688.596 1.72.684 3.621.096 2.057.116 2.673.116 7.88s-.02 5.823-.116 7.88c-.088 1.9-.412 2.933-.684 3.62-.36.91-.792 1.56-1.487 2.243-.695.682-1.358 1.105-2.285 1.458-.7.267-1.753.585-3.69.672-2.096.094-2.725.113-8.032.113s-5.936-.02-8.031-.113c-1.938-.087-2.99-.405-3.69-.672-.928-.353-1.59-.776-2.286-1.458a6.032 6.032 0 0 1-1.487-2.242c-.272-.688-.596-1.72-.684-3.621-.096-2.056-.116-2.673-.116-7.88s.02-5.823.116-7.88c.088-1.9.412-2.933.684-3.62.36-.91.792-1.56 1.487-2.243.695-.682 1.358-1.105 2.285-1.458.7-.267 1.753-.585 3.69-.672 2.097-.094 2.725-.113 8.032-.113Zm0-3.513c-5.398 0-6.075.022-8.194.117-2.116.095-3.56.425-4.825.907-1.307.498-2.415 1.165-3.52 2.249a9.542 9.542 0 0 0-2.293 3.454C.802 8.904.466 10.322.37 12.397c-.097 2.08-.12 2.744-.12 8.04 0 5.296.023 5.96.12 8.04.096 2.075.432 3.493.923 4.733a9.543 9.543 0 0 0 2.293 3.454c1.105 1.084 2.213 1.751 3.52 2.25 1.264.481 2.709.811 4.825.906 2.12.095 2.796.117 8.194.117 5.398 0 6.075-.022 8.194-.117 2.116-.095 3.56-.425 4.825-.907 1.307-.498 2.415-1.165 3.52-2.249a9.542 9.542 0 0 0 2.292-3.454c.492-1.24.828-2.658.924-4.733.097-2.08.12-2.744.12-8.04 0-5.296-.023-5.96-.12-8.04-.096-2.075-.432-3.493-.924-4.733a9.542 9.542 0 0 0-2.292-3.454c-1.105-1.084-2.213-1.75-3.52-2.25-1.264-.481-2.71-.81-4.825-.906C26.2.96 25.523.937 20.125.937Zm0 9.487c-5.637 0-10.206 4.483-10.206 10.013s4.57 10.014 10.206 10.014c5.637 0 10.206-4.484 10.206-10.014 0-5.53-4.57-10.014-10.206-10.014Zm0 16.513c-3.659 0-6.625-2.91-6.625-6.5s2.966-6.5 6.625-6.5 6.625 2.91 6.625 6.5-2.966 6.5-6.625 6.5Zm12.994-16.91c0 1.293-1.068 2.34-2.385 2.34-1.317 0-2.385-1.047-2.385-2.34 0-1.291 1.068-2.34 2.385-2.34 1.317 0 2.385 1.049 2.385 2.34Z"/></svg>
